src/images/single-assets/FORM.svg

<svg xmlns="http://www.w3.org/2000/svg" width="96" height="96" fill="none" viewBox="0 0 96 96"><circle cx="48" cy="48" r="48" fill="#fff"/><path fill="#070618" d="M67.8337 38.2641C67.8337 38.0527 67.7294 37.8651 67.5567 37.7579L62.0837 34.3037C62.0033 34.2561 61.911 34.2203 61.8276 34.2203L57.4772 33.8809L52.2006 26.0316L47.8502 12.4115C47.7698 12.1525 47.5375 11.9887 47.2725 12.0006C47.0194 12.0125 46.7991 12.2001 46.7276 12.4473L43.4313 26.6897H40.7245C40.4923 26.6897 40.2838 26.8296 40.1915 27.053L37.3805 33.9523L30.8772 35.34C30.7164 35.3757 30.5645 35.4799 30.4841 35.6348L28.0424 40.2055C28.0067 40.277 27.9948 40.3574 27.9858 40.4408C27.9858 40.4646 27.9858 40.4884 27.9858 40.5123C27.9858 40.548 27.9858 40.5718 27.9858 40.6075L31.8867 60.186C31.9105 60.326 31.9909 60.4451 32.0951 60.5374L40.0456 66.8025L44.1072 73.6423L49.083 84.5944C49.1872 84.8177 49.4075 84.9458 49.6398 84.9338C49.8244 84.9219 49.9763 84.8058 50.0686 84.651L50.0924 84.6629L56.295 74.8632L63.9656 62.8868C64.0132 62.8154 64.0341 62.7469 64.046 62.6635V62.6516L67.8188 38.3355H67.8069C67.8218 38.3236 67.8337 38.2998 67.8337 38.2641ZM57.5605 36.8437L53.6716 37.6536L49.9703 38.4398L53.1982 34.7146L53.6716 34.1608L53.7193 34.1131L53.8116 34.1727L54.7377 34.8308L57.5605 36.8437ZM55.9972 33.7528L56.4141 34.3752L56.703 34.798L56.0657 34.3394L55.1396 33.6814L54.1213 32.9518L53.5644 30.9538L53.1833 29.5662L55.9972 33.7528ZM47.3887 14.761L51.1257 26.4545L52.9897 33.1781L52.7128 33.4968L52.2394 34.0506L51.7659 34.6015L48.6542 38.1986L47.4512 34.2501L47.2666 33.6516L47.0819 33.0531L46.2839 30.4446C46.2839 30.4327 46.272 30.4327 46.2601 30.4208C46.2482 30.3969 46.2482 30.3612 46.2363 30.3374L44.5241 27.1989L47.3887 14.761ZM43.5474 27.8629L44.0566 28.8039L42.6571 27.8629H43.5474ZM38.2262 34.9737L38.4912 34.3156L38.7562 33.6576L39.462 31.9305L41.0014 28.1458L43.8928 30.0843L44.6908 30.6262L41.2426 33.1305L40.0754 33.9762L38.9081 34.8218L38.0178 35.468L38.2262 34.9737ZM41.7191 34.2352L42.8863 33.3896L43.7201 32.791L45.3966 31.5702L45.8253 32.9578L46.01 33.5563L46.1946 34.1548L47.606 38.7852H40.0516L37.714 37.1385L41.7191 34.2352ZM31.3745 36.4328L36.8475 35.2685L36.1775 36.9241C36.0733 37.1832 36.1537 37.475 36.386 37.6298L39.5573 39.8512C39.6496 39.9227 39.7657 39.9584 39.8818 39.9584H48.3981C48.4338 39.9584 48.4785 39.9584 48.5142 39.9465L59.103 37.7251C59.2876 37.6894 59.4514 37.5494 59.5199 37.3737C59.5884 37.1861 59.5675 36.9866 59.4633 36.8229L58.3169 35.1196L61.5924 35.3787L66.1274 38.2343L60.2732 41.6319L42.1062 42.6086L29.4479 40.0686L31.3745 36.4328ZM42.794 43.7401L59.9546 42.823L61.378 52.307L53.2101 71.3942L47.8294 65.5072L42.794 43.7401ZM46.1291 63.262L39.0004 53.8256L29.9065 41.3579L41.5821 43.7073L46.1291 63.262ZM29.6385 42.954L37.7736 54.1174L32.8217 58.9116L29.6385 42.954ZM33.3428 60.0193L38.4674 55.0614L46.1976 65.2988L40.656 65.805L33.3428 60.0193ZM41.4541 66.9038L46.4536 66.4571L44.4854 72.0046L41.4541 66.9038ZM49.5177 82.7333L45.2477 73.3327L47.5286 66.8919L52.7366 72.5912L49.5177 82.7333ZM55.3392 74.226L51.5336 80.2559L53.9069 72.7699L60.2583 66.5643L55.3392 74.226ZM55.0712 69.9827L61.7025 54.4926L62.8817 62.3538L55.0712 69.9827ZM63.4951 58.724L61.0772 42.5192L62.8132 41.5098L66.5056 39.3718L63.4951 58.724Z"/></svg>

<svg xmlns="http://www.w3.org/2000/svg" width="96" height="96" fill="none"><circle cx="48" cy="48" r="48" fill="#fff"/><path fill="#070618" d="M67.834 38.264a.59.59 0 0 0-.277-.506l-5.473-3.454a.53.53 0 0 0-.256-.084l-4.35-.34-5.277-7.848-4.35-13.62a.57.57 0 0 0-.578-.411.61.61 0 0 0-.545.446L43.43 26.69h-2.706c-.233 0-.441.14-.534.363l-2.81 6.9-6.504 1.387a.59.59 0 0 0-.393.295l-2.442 4.57a.7.7 0 0 0-.056.236v.167l3.9 19.578c.024.14.105.26.21.351l7.95 6.265 4.061 6.84 4.976 10.952a.58.58 0 0 0 .557.34.55.55 0 0 0 .429-.283l.023.012 6.203-9.8 7.67-11.976a.5.5 0 0 0 .081-.224v-.011l3.773-24.316h-.012c.015-.012.027-.036.027-.072m-10.274-1.42-3.888.81-3.702.786 3.228-3.725.474-.554.047-.048.093.06.926.658zm-1.563-3.091.417.622.289.423-.637-.459-.926-.658-1.019-.73-.557-1.997-.38-1.388zM47.39 14.76l3.737 11.694 1.864 6.723-.277.319-.474.554-.473.55-3.112 3.598-1.203-3.949-.184-.598-.185-.599-.798-2.608c0-.012-.012-.012-.024-.024-.012-.024-.012-.06-.024-.084L44.524 27.2zm-3.842 13.102.51.94-1.4-.94zm-5.32 7.11.264-.657.265-.658.706-1.728 1.54-3.784 2.89 1.938.799.542-3.448 2.504-1.168.846-1.167.846-.89.646zm3.492-.738 1.167-.845.834-.599 1.677-1.22.428 1.387.185.598.185.599 1.411 4.63h-7.554l-2.338-1.646zm-10.344 2.198 5.472-1.164-.67 1.655a.58.58 0 0 0 .209.706l3.171 2.221a.53.53 0 0 0 .325.107h8.516c.036 0 .08 0 .116-.011l10.589-2.222a.58.58 0 0 0 .417-.351.62.62 0 0 0-.057-.551l-1.146-1.703 3.275.259 4.535 2.855-5.854 3.398-18.167.977-12.658-2.54zm11.419 7.307 17.16-.917 1.424 9.484-8.168 19.087-5.38-5.887zm3.335 19.522L39 53.826l-9.093-12.468 11.675 2.35zM29.64 42.954l8.135 11.163-4.952 4.795zm3.704 17.065 5.124-4.958 7.73 10.238-5.541.506zm8.111 6.885 5-.447-1.969 5.548zm8.064 15.83-4.27-9.401 2.28-6.441 5.209 5.7zm5.821-8.508-3.805 6.03 2.373-7.486 6.351-6.206zm-.268-4.243 6.632-15.49 1.179 7.86zm8.424-11.259-2.418-16.205 1.736-1.01 3.693-2.137z"/></svg>
